X: 21
T:Armenian Turns
O:Armenia
F: http://www.youtube.com/watch?v=2Ekr53ZMOgo
F: http://www.youtube.com/watch?v=pIP2WfSrztw
F: http://www.youtube.com/watch?v=-rbRFNG1_Eo
M:4/4
L:1/8
Q:1/4=160
K:APhr
|:"A"A2 ^cd e2 e2|e3 g "Dm"fe d2|"A"z2 e g "Dm"fe d2 | "A"e2 d^c "Dm"d4 :|
|:"A"^cdef edcB  | ^cdef edcB   | ^cdef edcB         | ^c2 AA A4        :|



